X:21119 
T:MAIDS OF BALLINACARTY, The 
B:DMI.0332
Z:Nordberg/Black
N:I'm guessing that this is a D-modal tune, but
I'm not sure. Replace G with D in the %K field
and see if you like that better!
R:jig
%Q:1/4=160
M:6/8
L:1/8
K:G
"D mix"
K:G
c|ded cAG|F2D DFD|E2c cBc|ded cAG|
Acd cAG|F2D DFD|E2A ABG|F2D D2:|
G|A2d dcd|f2d dcd|e2c cBc|e2c cBc|
e2f gfg|aba a2g|fed efg|f2d d2:|

%%%

